X: 26415
T: Merry Nicht Under The Tummel Brig
R: reel
M: 4/4
K: Eminor
F|E>BGB E/E/E B2|FDAF DEFD|EBGB E/E/E B2|FDAF BE E2|
E>BGB E/E/E B2|FDAF DEFD|EB,GE FDAF|GBAF E2 E||
f|efge bgfd|Bgfg afdf|efge bgfd|Bagf e2 ef|
efge bgfd|Bgfg afdg|afge f^deB|GBAF E2 E||

